;Generated with Cura_SteamEngine 13.06.4
M92 E865.888000
M140 S120.000000
M109 T0 S220.000000
T0
M190 S120.000000
;Sliced ?filename? at: Sat 21 Sep 2013 13:50:38
;Basic settings: Layer height: 0.4 Walls: 1.35 Fill: 30
;Print time: #P_TIME#
;Filament used: #F_AMNT#m #F_WGHT#g
;Filament cost: #F_COST#
G21        ;metric values
G90        ;absolute positioning
M107       ;start with the fan off
G28 X0 Y0  ;move X/Y to min endstops
G28 Z0     ;move Z to min endstops
G1 Z15.0 F0 ;move the platform down 15mm
G92 E0                  ;zero the extruded length
G1 F200 E3              ;extrude 3mm of feed stock
G92 E0                  ;zero the extruded length again
G1 F9000
M117 Printing...

;total_layers=62
;LAYER:0
M107
G0 F4500 X84.19 Y95.18 Z0.60
;TYPE:SKIRT
G1 F1500 X85.94 Y93.70 E0.25755
G1 X86.23 Y93.50 E0.29675
G1 X88.26 Y92.42 E0.55461
G1 X88.59 Y92.29 E0.59411
G1 X90.80 Y91.68 E0.85174
G1 X91.14 Y91.62 E0.89064
G1 X93.30 Y91.51 E1.13370
G1 X93.39 Y91.50 E1.14358
G1 X104.65 Y91.50 E2.40766
G1 X105.84 Y92.00 E2.55175
G1 X115.79 Y101.95 E4.13179
G1 X116.27 Y103.44 E4.30791
G1 X116.23 Y103.67 E4.33365
G1 X116.37 Y104.37 E4.41401
G1 X116.74 Y104.93 E4.48888
G1 X117.29 Y105.30 E4.56351
G1 X117.95 Y105.43 E4.63871
G1 X118.60 Y105.30 E4.71380
G1 X119.16 Y104.93 E4.78868
G1 X119.53 Y104.37 E4.86371
G1 X119.66 Y103.72 E4.93858
G1 X119.53 Y103.06 E5.01345
G1 X119.16 Y102.51 E5.08848
G1 X118.60 Y102.14 E5.16336
G1 X117.93 Y102.00 E5.24039
G1 X117.72 Y102.04 E5.26414
G1 X116.19 Y101.57 E5.44384
G1 X110.11 Y95.49 E6.40984
G1 X111.76 Y91.50 E6.89354
G1 X118.57 Y91.50 E7.65798
G1 X118.83 Y91.53 E7.68759
G1 X121.05 Y91.89 E7.94027
G1 X121.39 Y91.98 E7.97927
G1 X123.52 Y92.83 E8.23693
G1 X123.83 Y93.00 E8.27635
G1 X125.73 Y94.29 E8.53418
G1 X125.99 Y94.51 E8.57327
G1 X127.57 Y96.18 E8.83101
G1 X127.79 Y96.46 E8.87050
G1 X128.97 Y98.42 E9.12810
G1 X129.12 Y98.74 E9.16718
G1 X129.85 Y100.92 E9.42500
G1 X129.93 Y101.26 E9.46441
G1 X130.17 Y103.54 E9.72207
G1 X130.17 Y103.89 E9.76125
G1 X129.93 Y106.17 E10.01890
G1 X129.85 Y106.51 E10.05832
G1 X129.12 Y108.69 E10.31614
G1 X128.97 Y109.01 E10.35521
G1 X127.79 Y110.97 E10.61281
G1 X127.57 Y111.25 E10.65230
G1 X125.99 Y112.92 E10.91004
G1 X125.73 Y113.15 E10.94914
G1 X123.83 Y114.43 E11.20696
G1 X123.52 Y114.60 E11.24638
G1 X121.39 Y115.45 E11.50405
G1 X121.05 Y115.54 E11.54305
G1 X118.83 Y115.91 E11.79572
G1 X118.57 Y115.93 E11.82535
G1 X106.24 Y115.93 E13.20864
G1 X105.06 Y115.44 E13.35277
G1 X95.11 Y105.48 E14.93281
G1 X94.63 Y103.99 E15.10893
G1 X94.67 Y103.76 E15.13489
G1 X94.53 Y103.06 E15.21489
G1 X94.16 Y102.50 E15.28977
G1 X93.61 Y102.14 E15.36440
G1 X92.95 Y102.00 E15.43960
G1 X92.29 Y102.14 E15.51469
G1 X91.74 Y102.51 E15.58957
G1 X91.37 Y103.06 E15.66460
G1 X91.24 Y103.72 E15.73947
G1 X91.37 Y104.37 E15.81434
G1 X91.74 Y104.93 E15.88937
G1 X92.29 Y105.30 E15.96425
G1 X92.96 Y105.43 E16.04106
G1 X93.17 Y105.39 E16.06494
G1 X94.70 Y105.86 E16.24465
G1 X100.79 Y111.95 E17.21064
G1 X99.14 Y115.93 E17.69444
G1 X93.36 Y115.93 E18.34259
G1 X93.27 Y115.92 E18.35292
G1 X91.11 Y115.80 E18.59590
G1 X90.78 Y115.74 E18.63426
G1 X88.58 Y115.14 E18.88933
G1 X88.25 Y115.00 E18.92938
G1 X86.21 Y113.91 E19.18996
G1 X85.92 Y113.71 E19.22897
G1 X84.17 Y112.23 E19.48665
G1 X83.93 Y111.97 E19.52604
G1 X82.55 Y110.14 E19.78370
G1 X82.37 Y109.84 E19.82267
G1 X81.41 Y107.76 E20.07983
G1 X81.30 Y107.43 E20.11870
G1 X80.81 Y105.21 E20.37388
G1 X80.78 Y104.86 E20.41327
G1 X80.78 Y102.57 E20.67067
G1 X80.81 Y102.22 E20.71008
G1 X81.31 Y99.98 E20.96789
G1 X81.42 Y99.64 E21.00719
G1 X82.38 Y97.56 E21.26474
G1 X82.56 Y97.26 E21.30382
G1 X83.95 Y95.44 E21.56153
G1 X84.19 Y95.18 E21.60100
G0 F4500 X87.23 Y98.31
;TYPE:WALL-INNER
G1 F1500 X88.53 Y97.20 E21.79229
G1 X90.04 Y96.41 E21.98341
G1 X91.68 Y95.95 E22.17422
G1 X93.46 Y95.85 E22.37511
G1 X103.54 Y95.85 E23.50696
G1 X111.90 Y104.21 E24.83331
G1 X112.25 Y105.96 E25.03316
G1 X112.33 Y106.16 E25.05793
G1 X113.54 Y107.97 E25.30183
G1 X113.69 Y108.13 E25.32691
G1 X115.50 Y109.33 E25.57071
G1 X115.71 Y109.42 E25.59548
G1 X117.84 Y109.84 E25.83951
G1 X118.06 Y109.84 E25.86432
G1 X120.19 Y109.42 E26.10824
G1 X120.39 Y109.33 E26.13300
G1 X122.20 Y108.13 E26.37672
G1 X122.36 Y107.97 E26.40180
G1 X123.56 Y106.16 E26.64576
G1 X123.65 Y105.96 E26.67053
G1 X124.07 Y103.83 E26.91434
G1 X124.07 Y103.61 E26.93915
G1 X123.65 Y101.47 E27.18296
G1 X123.56 Y101.27 E27.20772
G1 X122.36 Y99.46 E27.45168
G1 X122.20 Y99.31 E27.47677
G1 X120.39 Y98.10 E27.72048
G1 X120.19 Y98.02 E27.74524
G1 X118.44 Y97.67 E27.94569
G1 X116.63 Y95.85 E28.23334
G1 X118.34 Y95.85 E28.42608
G1 X120.05 Y96.14 E28.62061
G1 X121.63 Y96.76 E28.81125
G1 X123.04 Y97.72 E29.00288
G1 X124.21 Y98.95 E29.19361
G1 X125.09 Y100.41 E29.38414
G1 X125.63 Y102.03 E29.57597
G1 X125.82 Y103.72 E29.76656
G1 X125.63 Y105.40 E29.95716
G1 X125.09 Y107.02 E30.14899
G1 X124.21 Y108.48 E30.33952
G1 X123.04 Y109.71 E30.53024
G1 X121.63 Y110.67 E30.72187
G1 X120.05 Y111.30 E30.91252
G1 X118.34 Y111.58 E31.10705
G1 X107.35 Y111.58 E32.34093
G1 X99.00 Y103.22 E33.66744
G1 X98.65 Y101.47 E33.86729
G1 X98.56 Y101.27 E33.89206
G1 X97.36 Y99.46 E34.13596
G1 X97.20 Y99.31 E34.16104
G1 X95.39 Y98.10 E34.40484
G1 X95.19 Y98.02 E34.42961
G1 X93.06 Y97.59 E34.67364
G1 X92.84 Y97.59 E34.69845
G1 X90.71 Y98.02 E34.94237
G1 X90.50 Y98.10 E34.96714
G1 X88.70 Y99.31 E35.21085
G1 X88.54 Y99.46 E35.23593
G1 X87.33 Y101.27 E35.47989
G1 X87.25 Y101.47 E35.50466
G1 X86.82 Y103.61 E35.74847
G1 X86.82 Y103.83 E35.77328
G1 X87.25 Y105.96 E36.01709
G1 X87.33 Y106.16 E36.04185
G1 X88.54 Y107.97 E36.28581
G1 X88.70 Y108.13 E36.31090
G1 X90.50 Y109.33 E36.55461
G1 X90.71 Y109.42 E36.57937
G1 X92.46 Y109.76 E36.77982
G1 X94.27 Y111.58 E37.06747
G1 X93.44 Y111.58 E37.16019
G1 X91.65 Y111.47 E37.36135
G1 X90.04 Y111.03 E37.54970
G1 X88.52 Y110.21 E37.74299
G1 X87.22 Y109.11 E37.93385
G1 X86.20 Y107.75 E38.12509
G1 X85.49 Y106.21 E38.31565
G1 X85.13 Y104.56 E38.50483
G1 X85.13 Y102.87 E38.69521
G1 X85.49 Y101.20 E38.88660
G1 X86.21 Y99.66 E39.07760
G1 X87.23 Y98.31 E39.26812
G0 F4500 X93.01 Y98.07
G0 X95.17 Y98.52
G0 X96.99 Y99.77
G0 X103.51 Y102.76
G1 F1500 X103.51 Y104.67 E39.48196
G1 X103.94 Y105.26 E39.56394
G1 X105.76 Y105.85 E39.77800
G1 X106.45 Y105.62 E39.86017
G1 X107.57 Y104.08 E40.07411
G1 X107.57 Y103.35 E40.15616
G1 X106.45 Y101.81 E40.37010
G1 X105.76 Y101.58 E40.45228
G1 X103.94 Y102.17 E40.66633
G1 X103.51 Y102.76 E40.74831
G0 F4500 X103.96 Y102.91
G1 F1500 X103.96 Y104.52 E40.92937
G1 X104.22 Y104.88 E40.97857
G1 X105.76 Y105.38 E41.15975
G1 X106.17 Y105.24 E41.20906
G1 X107.12 Y103.93 E41.39022
G1 X107.12 Y103.50 E41.43949
G1 X106.17 Y102.19 E41.62065
G1 X105.76 Y102.06 E41.66996
G1 X104.22 Y102.55 E41.85114
G1 X103.96 Y102.91 E41.90034
G0 F4500 X98.58 Y103.44
G1 F1500 X98.22 Y101.61 E42.11060
G1 X98.17 Y101.49 E42.12544
G1 X97.01 Y99.75 E42.35947
G1 X96.91 Y99.65 E42.37455
G1 X95.18 Y98.50 E42.60849
G1 X95.06 Y98.45 E42.62333
G1 X93.01 Y98.04 E42.85730
G1 X92.88 Y98.04 E42.87223
G1 X90.84 Y98.45 E43.10609
G1 X90.71 Y98.50 E43.12104
G1 X88.98 Y99.65 E43.35488
G1 X88.89 Y99.75 E43.36981
G1 X87.73 Y101.48 E43.60390
G1 X87.68 Y101.61 E43.61885
G1 X87.27 Y103.65 E43.85260
G1 X87.27 Y103.78 E43.86753
G1 X87.68 Y105.82 E44.10128
G1 X87.73 Y105.95 E44.11622
G1 X88.89 Y107.68 E44.35032
G1 X88.98 Y107.78 E44.36524
G1 X90.71 Y108.93 E44.59908
G1 X90.84 Y108.98 E44.61403
G1 X92.68 Y109.35 E44.82464
G1 X95.36 Y112.03 E45.24977
G1 X93.43 Y112.03 E45.46541
G1 X91.58 Y111.92 E45.67376
G1 X89.87 Y111.44 E45.87363
G1 X88.26 Y110.59 E46.07737
G1 X86.89 Y109.42 E46.27953
G1 X85.81 Y107.98 E46.48182
G1 X85.06 Y106.35 E46.68338
G1 X84.68 Y104.62 E46.88291
G1 X84.68 Y102.82 E47.08496
G1 X85.06 Y101.06 E47.28646
G1 X85.82 Y99.43 E47.48896
G1 X86.91 Y98.00 E47.69068
G1 X88.28 Y96.83 E47.89304
G1 X89.86 Y95.99 E48.09436
G1 X91.60 Y95.51 E48.29690
G1 X93.46 Y95.40 E48.50499
G1 X103.73 Y95.40 E49.65861
G1 X112.31 Y103.99 E51.02100
G1 X112.68 Y105.82 E51.23127
G1 X112.73 Y105.95 E51.24611
G1 X113.89 Y107.68 E51.48014
G1 X113.98 Y107.78 E51.49522
G1 X115.71 Y108.93 E51.72916
G1 X115.84 Y108.98 E51.74400
G1 X117.88 Y109.39 E51.97797
G1 X118.01 Y109.39 E51.99290
G1 X120.06 Y108.98 E52.22676
G1 X120.18 Y108.93 E52.24171
G1 X121.91 Y107.78 E52.47555
G1 X122.01 Y107.68 E52.49047
G1 X123.16 Y105.95 E52.72457
G1 X123.21 Y105.82 E52.73951
G1 X123.62 Y103.78 E52.97326
G1 X123.62 Y103.65 E52.98819
G1 X123.21 Y101.61 E53.22194
G1 X123.16 Y101.48 E53.23689
G1 X122.01 Y99.75 E53.47098
G1 X121.91 Y99.65 E53.48591
G1 X120.18 Y98.50 E53.71975
G1 X120.06 Y98.45 E53.73470
G1 X118.22 Y98.08 E53.94531
G1 X115.54 Y95.40 E54.37028
G1 X118.38 Y95.40 E54.68908
G1 X120.18 Y95.70 E54.89330
G1 X121.84 Y96.36 E55.09464
G1 X123.34 Y97.38 E55.29732
G1 X124.57 Y98.68 E55.49861
G1 X125.50 Y100.22 E55.70101
G1 X126.07 Y101.93 E55.90328
G1 X126.27 Y103.72 E56.10494
G1 X126.07 Y105.50 E56.30661
G1 X125.50 Y107.21 E56.50887
G1 X124.57 Y108.75 E56.71128
G1 X123.34 Y110.06 E56.91257
G1 X121.84 Y111.07 E57.11525
G1 X120.18 Y111.73 E57.31659
G1 X118.38 Y112.03 E57.52081
G1 X107.16 Y112.03 E58.77984
G1 X98.58 Y103.44 E60.14239
G0 F4500 X98.17 Y103.67
;TYPE:WALL-OUTER
G1 F1500 X97.78 Y101.74 E60.36308
G1 X97.77 Y101.70 E60.36806
G1 X96.66 Y100.04 E60.59213
G1 X96.63 Y100.00 E60.59705
G1 X94.97 Y98.90 E60.82103
G1 X94.93 Y98.88 E60.82601
G1 X92.97 Y98.49 E61.05003
G1 X92.93 Y98.49 E61.05508
G1 X90.97 Y98.88 E61.27899
G1 X90.93 Y98.90 E61.28397
G1 X89.24 Y100.04 E61.51268
G1 X88.13 Y101.70 E61.73681
G1 X88.11 Y101.74 E61.74179
G1 X87.72 Y103.69 E61.96559
G1 X87.72 Y103.74 E61.97065
G1 X88.11 Y105.69 E62.19445
G1 X88.13 Y105.73 E62.19943
G1 X89.27 Y107.43 E62.42839
G1 X90.93 Y108.53 E62.65227
G1 X90.97 Y108.55 E62.65725
G1 X92.90 Y108.94 E62.87830
G1 X96.44 Y112.48 E63.44059
G1 X93.43 Y112.48 E63.77914
G1 X91.51 Y112.37 E63.99503
G1 X89.70 Y111.87 E64.20549
G1 X88.01 Y110.96 E64.42068
G1 X86.57 Y109.73 E64.63328
G1 X85.42 Y108.21 E64.84703
G1 X84.63 Y106.50 E65.05909
G1 X84.23 Y104.66 E65.27001
G1 X84.23 Y102.77 E65.48261
G1 X84.64 Y100.91 E65.69584
G1 X85.43 Y99.19 E65.90870
G1 X86.58 Y97.68 E66.12124
G1 X88.03 Y96.45 E66.33484
G1 X89.70 Y95.57 E66.54745
G1 X91.53 Y95.06 E66.76037
G1 X93.45 Y94.95 E66.97622
G1 X103.92 Y94.95 E68.15151
G1 X112.73 Y103.76 E69.55009
G1 X113.11 Y105.69 E69.77079
G1 X113.13 Y105.73 E69.77577
G1 X114.24 Y107.39 E69.99984
G1 X114.27 Y107.43 E70.00476
G1 X115.93 Y108.53 E70.22873
G1 X115.97 Y108.55 E70.23372
G1 X117.93 Y108.94 E70.45774
G1 X117.97 Y108.94 E70.46279
G1 X119.93 Y108.55 E70.68670
G1 X119.97 Y108.53 E70.69168
G1 X121.66 Y107.39 E70.92039
G1 X122.76 Y105.73 E71.14452
G1 X122.78 Y105.69 E71.14950
G1 X123.17 Y103.74 E71.37330
G1 X123.17 Y103.69 E71.37835
G1 X122.78 Y101.74 E71.60215
G1 X122.76 Y101.70 E71.60713
G1 X121.63 Y100.00 E71.83609
G1 X119.97 Y98.90 E72.05997
G1 X119.93 Y98.88 E72.06495
G1 X118.00 Y98.50 E72.28600
G1 X114.45 Y94.95 E72.84814
G1 X118.42 Y94.95 E73.29288
G1 X120.29 Y95.26 E73.50664
G1 X122.06 Y95.96 E73.71961
G1 X123.63 Y97.03 E73.93248
G1 X124.93 Y98.40 E74.14536
G1 X125.91 Y100.03 E74.35854
G1 X126.52 Y101.83 E74.57132
G1 X126.72 Y103.72 E74.78438
G1 X126.52 Y105.60 E74.99745
G1 X125.91 Y107.40 E75.21023
G1 X124.93 Y109.03 E75.42341
G1 X123.63 Y110.40 E75.63629
G1 X122.06 Y111.47 E75.84916
G1 X120.29 Y112.17 E76.06213
G1 X118.42 Y112.48 E76.27589
G1 X106.98 Y112.48 E77.55984
G1 X98.17 Y103.67 E78.95858
G0 F4500 X98.45 Y103.49
G0 X104.15 Y102.86
G0 X104.41 Y103.06
G1 F1500 X104.41 Y104.38 E79.10687
G1 X104.50 Y104.49 E79.12319
G1 X105.76 Y104.90 E79.27157
G1 X105.90 Y104.86 E79.28808
G1 X106.67 Y103.79 E79.43645
G1 X106.67 Y103.64 E79.45273
G1 X105.90 Y102.57 E79.60110
G1 X105.76 Y102.53 E79.61761
G1 X104.50 Y102.94 E79.76599
G1 X104.41 Y103.06 E79.78232
G0 F4500 X103.36 Y103.06
;TYPE:FILL
G1 F3000 X96.31 Y96.01 E80.90166
G0 F4500 X95.67 Y96.01
G1 F3000 X103.36 Y103.70 E82.12197
G0 F4500 X103.36 Y104.33
G1 F3000 X95.03 Y96.01 E83.44332
G0 F4500 X94.40 Y96.01
G1 F3000 X109.80 Y111.42 E85.88934
G0 F4500 X109.17 Y111.42
G1 F3000 X98.22 Y100.47 E87.62701
G0 F4500 X98.86 Y101.75
G1 F3000 X108.53 Y111.42 E89.16180
G0 F4500 X107.89 Y111.42
G1 F3000 X99.02 Y102.55 E90.57047
G0 F4500 X103.48 Y102.55
G1 F3000 X96.94 Y96.01 E91.60782
G0 F4500 X97.58 Y96.01
G1 F3000 X103.74 Y102.18 E92.58651
G0 F4500 X104.14 Y101.94
G1 F3000 X98.21 Y96.01 E93.52766
G0 F4500 X98.85 Y96.01
G1 F3000 X104.62 Y101.78 E94.44396
G0 F4500 X105.10 Y101.63
G1 F3000 X99.49 Y96.01 E95.33534
G0 F4500 X100.12 Y96.01
G1 F3000 X105.58 Y101.47 E96.20179
G0 F4500 X106.36 Y101.61
G1 F3000 X100.76 Y96.01 E97.09079
G0 F4500 X101.40 Y96.01
G1 F3000 X113.33 Y107.94 E98.98523
G0 F4500 X113.72 Y108.33
G1 F3000 X116.80 Y111.42 E99.47553
G0 F4500 X116.17 Y111.42
G1 F3000 X106.88 Y102.14 E100.94936
G0 F4500 X107.73 Y103.62
G1 F3000 X115.53 Y111.42 E102.18809
G0 F4500 X114.89 Y111.42
G1 F3000 X107.68 Y104.20 E103.33378
G0 F4500 X107.41 Y104.57
G1 F3000 X114.26 Y111.42 E104.42106
G0 F4500 X113.62 Y111.42
G1 F3000 X107.14 Y104.94 E105.44983
G0 F4500 X106.87 Y105.31
G1 F3000 X112.99 Y111.42 E106.42011
G0 F4500 X112.35 Y111.42
G1 F3000 X106.61 Y105.68 E107.33197
G0 F4500 X106.17 Y105.88
G1 F3000 X111.71 Y111.42 E108.21144
G0 F4500 X111.08 Y111.42
G1 F3000 X105.63 Y105.97 E109.07568
G0 F4500 X104.69 Y105.67
G1 F3000 X110.44 Y111.42 E109.98896
G0 F4500 X115.54 Y109.52
G1 F3000 X117.44 Y111.42 E110.29083
G0 F4500 X118.08 Y111.42
G1 F3000 X116.36 Y109.71 E110.56261
G0 F4500 X117.16 Y109.87
G1 F3000 X118.66 Y111.36 E110.80057
G0 F4500 X119.21 Y111.28
G1 F3000 X117.93 Y110.00 E111.00329
G0 F4500 X118.48 Y109.92
G1 F3000 X119.75 Y111.18 E111.20475
G0 F4500 X120.25 Y111.05
G1 F3000 X119.01 Y109.81 E111.40104
G0 F4500 X119.54 Y109.70
G1 F3000 X120.71 Y110.86 E111.58535
G0 F4500 X121.16 Y110.68
G1 F3000 X120.07 Y109.60 E111.75775
G0 F4500 X120.54 Y109.42
G1 F3000 X121.61 Y110.49 E111.92754
G0 F4500 X121.99 Y110.24
G1 F3000 X120.92 Y109.17 E112.09684
G0 F4500 X121.30 Y108.91
G1 F3000 X122.36 Y109.98 E112.26583
G0 F4500 X122.74 Y109.72
G1 F3000 X121.68 Y108.66 E112.43426
G0 F4500 X122.06 Y108.40
G1 F3000 X123.09 Y109.43 E112.59722
G0 F4500 X123.40 Y109.11
G1 F3000 X122.42 Y108.13 E112.75264
G0 F4500 X122.69 Y107.75
G1 F3000 X123.71 Y108.78 E112.91504
G0 F4500 X124.02 Y108.45
G1 F3000 X122.94 Y107.37 E113.08617
G0 F4500 X123.19 Y106.99
G1 F3000 X124.27 Y108.07 E113.25730
G0 F4500 X124.51 Y107.67
G1 F3000 X123.45 Y106.61 E113.42581
G0 F4500 X123.70 Y106.23
G1 F3000 X124.75 Y107.27 E113.59203
G0 F4500 X124.97 Y106.86
G1 F3000 X123.85 Y105.74 E113.77046
G0 F4500 X123.96 Y105.21
G1 F3000 X125.13 Y106.38 E113.95747
G0 F4500 X125.29 Y105.91
G1 F3000 X124.06 Y104.68 E114.15336
G0 F4500 X124.17 Y104.14
G1 F3000 X125.46 Y105.43 E114.35783
G0 F4500 X125.53 Y104.87
G1 F3000 X124.22 Y103.57 E114.56516
G0 F4500 X124.07 Y102.77
G1 F3000 X125.59 Y104.30 E114.80773
G0 F4500 X125.66 Y103.72
G1 F3000 X123.91 Y101.97 E115.08538
G0 F4500 X123.58 Y101.01
G1 F3000 X125.58 Y103.01 E115.40352
G0 F4500 X125.50 Y102.30
G1 F3000 X119.39 Y96.18 E116.37403
G0 F4500 X118.63 Y96.06
G1 F3000 X120.65 Y98.08 E116.69471
G0 F4500 X119.69 Y97.75
G1 F3000 X117.94 Y96.01 E116.97141
G0 F4500 X117.31 Y96.01
G1 F3000 X118.89 Y97.59 E117.22279
G0 F4500 X120.21 Y96.36
G1 F3000 X125.26 Y101.42 E118.02495
G0 F4500 X124.92 Y100.44
G1 F3000 X121.26 Y96.79 E118.60574
G0 F4500 X123.19 Y101.61
G0 X123.60 Y103.78
G0 X123.14 Y105.93
G0 X121.90 Y107.75
G0 X120.05 Y108.96
G0 X117.88 Y109.36
G0 X115.73 Y108.91
G0 X113.91 Y107.67
G0 X112.71 Y105.82
G0 X111.79 Y104.50
G1 F3000 X103.31 Y96.01 E119.95328
G0 F4500 X102.67 Y96.01
G1 F3000 X111.95 Y105.29 E121.42711
G0 F4500 X112.14 Y106.12
G1 F3000 X102.03 Y96.01 E123.03207
G0 F4500 X96.18 Y98.44
G1 F3000 X93.76 Y96.01 E123.41712
G0 F4500 X93.14 Y96.03
G1 F3000 X94.91 Y97.80 E123.69811
G0 F4500 X94.11 Y97.64
G1 F3000 X92.54 Y96.06 E123.94854
G0 F4500 X91.93 Y96.10
G1 F3000 X93.32 Y97.48 E124.16848
G0 F4500 X92.67 Y97.46
G1 F3000 X91.39 Y96.19 E124.37009
G0 F4500 X90.90 Y96.33
G1 F3000 X92.13 Y97.57 E124.56655
